public/css/img/flags/iceland.svg

<svg enable-background="new 0 0 512 512" viewBox="0 0 512 512" xmlns="http://www.w3.org/2000/svg"><circle cx="256" cy="256" fill="#f0f0f0" r="256"/><g fill="#0052b4"><path d="m8.819 322.783c14.812 54.959 47.457 102.593 91.355 136.322v-136.322z"/><path d="m233.739 511.026c7.338.632 14.759.974 22.261.974 118.279 0 217.805-80.221 247.181-189.217h-269.442z"/><path d="m503.181 189.217c-29.376-108.996-128.902-189.217-247.181-189.217-7.502 0-14.923.342-22.261.974v188.243z"/><path d="m100.174 52.895c-43.898 33.73-76.543 81.363-91.355 136.322h91.355z"/></g><path d="m509.833 222.609h-309.484-.001v-216.524c-23.658 5.246-46.087 13.749-66.783 25.042v191.481h-131.398c-1.425 10.931-2.167 22.075-2.167 33.392s.742 22.461 2.167 33.391h131.397.001v191.481c20.696 11.292 43.125 19.797 66.783 25.042v-216.52-.002h309.485c1.423-10.931 2.167-22.075 2.167-33.392s-.744-22.461-2.167-33.391z" fill="#d80027"/></svg>

<svg xmlns="http://www.w3.org/2000/svg" viewBox="0 0 512 512"><circle cx="256" cy="256" r="256" fill="#f0f0f0"/><path fill="#0052b4" d="M8.819 322.783c14.812 54.959 47.457 102.593 91.355 136.322V322.783zm224.92 188.243A259.29 259.29 0 0 0 256 512c118.279 0 217.805-80.221 247.181-189.217H233.739zm269.442-321.809C473.805 80.221 374.279 0 256 0c-7.502 0-14.923.342-22.261.974v188.243zM100.174 52.895c-43.898 33.73-76.543 81.363-91.355 136.322h91.355z"/><path fill="#d80027" d="M509.833 222.609H200.348V6.085a254.258 254.258 0 0 0-66.783 25.042v191.481H2.167C.742 233.539 0 244.683 0 256s.742 22.461 2.167 33.391h131.398v191.481a254.258 254.258 0 0 0 66.783 25.042V289.392h309.485C511.256 278.461 512 267.317 512 256s-.744-22.461-2.167-33.391z"/></svg>
